src/assets/icon4.svg

<svg width="41" height="41" viewBox="0 0 41 41" fill="none" xmlns="http://www.w3.org/2000/svg">
<circle cx="20.5" cy="20.5" r="20.5" fill="#B9FF66"/>
<path d="M11.2501 24.7009C10.5326 25.1151 10.2868 26.0325 10.701 26.75C11.1152 27.4674 12.0326 27.7132 12.7501 27.299L11.2501 24.7009ZM30.7694 16.3882C30.9839 15.588 30.509 14.7655 29.7088 14.5511L16.6688 11.057C15.8686 10.8426 15.0461 11.3175 14.8317 12.1177C14.6173 12.9179 15.0921 13.7404 15.8923 13.9548L27.4834 17.0606L24.3776 28.6517C24.1632 29.4519 24.6381 30.2744 25.4383 30.4888C26.2385 30.7033 27.061 30.2284 27.2754 29.4282L30.7694 16.3882ZM12.7501 27.299L30.0706 17.299L28.5706 14.7009L11.2501 24.7009L12.7501 27.299Z" fill="white"/>
</svg>

<?xml version="1.0" encoding="UTF-8"?>
<svg id="Layer_1" xmlns="http://www.w3.org/2000/svg" version="1.1" viewBox="0 0 41 41">
  <!-- Generator: Adobe Illustrator 29.8.3, SVG Export Plug-In . SVG Version: 2.1.1 Build 3)  -->
  <defs>
    <style>
      .st0 {
        fill: #fff;
      }

      .st1 {
        fill: #d4af37;
      }
    </style>
  </defs>
  <circle class="st1" cx="20.5" cy="20.5" r="20.5"/>
  <path class="st0" d="M11.25,24.7c-.72.41-.96,1.33-.55,2.05.41.72,1.33.96,2.05.55l-1.5-2.6ZM30.77,16.39c.21-.8-.26-1.62-1.06-1.84l-13.04-3.49c-.8-.21-1.62.26-1.84,1.06-.21.8.26,1.62,1.06,1.84l11.59,3.11-3.11,11.59c-.21.8.26,1.62,1.06,1.84.8.21,1.62-.26,1.84-1.06l3.49-13.04ZM12.75,27.3l17.32-10-1.5-2.6-17.32,10,1.5,2.6Z"/>
</svg>
